X:1
T:Title
%%score { ( 1 3 4 ) | ( 2 5 ) }
L:1/8
M:4/4
K:Bb
V:1 treble nm="Grand Piano"
V:3 treble 
V:4 treble 
V:2 bass 
V:5 bass 
V:1
 z4 z2[Q:1/4=100] [DF]2 | [Dd]3 [DA] [DB][DF] [_DA]>[DG] | F2- [DF-]2 [EF]2 [FB]2 | %3
 [^Fc]3 [GB] [FA][GB] A>G |[M:3/4] F6 |[M:1/4] F2 |[M:4/4] d- [Fd]2 [Ec] [Ge][Fd][DB][_DG] | %7
 [DF-]4 F2 z2 | [EB]3 [GB] [Fd][Fd][=Ec][_Ec] |[M:3/4] [DB]6 |] %10
V:2
 z4 z2 [B,,F,]2 | [B,,F,]3 [B,,F,] [B,,F,][B,,F,] [B,,=E,]>[B,,E,] | B,,4 [C,A,]2 [D,B,]2 | %3
 [E,A,]3 [E,B,] [E,C][E,B,] [=E,B,C]>[E,B,C] |[M:3/4] C2 z2 z2 |[M:1/4] [F,A,E]2 | %6
[M:4/4] [B,,B,]3 [B,,B,] [B,,B,][B,,B,][B,,F,][B,,=E,] | B,,4 [C,A,]2 [D,_A,]2 | %8
 [E,G,]3 [E,B,] [F,B,][G,B,][C,B,][F,A,] |[M:3/4] [B,,B,]6 |] %10
V:3
 x8 | x8 | [F,D]2 z2 z4 | x8 |[M:3/4] z2 E4 |[M:1/4] x2 |[M:4/4] .D2 z2 z4 | F,2 B,2 E2 [EB]2 | %8
 x8 |[M:3/4] x6 |] %10
V:4
 x8 | x8 | x8 | x8 |[M:3/4] z2 z2 G,2 |[M:1/4] x2 |[M:4/4] x8 | x8 | x8 |[M:3/4] x6 |] %10
V:5
 x8 | x8 | x8 | x8 |[M:3/4] [F,-B,]4 F,2 |[M:1/4] x2 |[M:4/4] x8 | x8 | x8 |[M:3/4] x6 |] %10

